!!!OTL: Am Abend, eh ich schlafen geh (Band 1), S. 205
!!!id: P0846
**kern
*clefG2
*k[b-]
*f:
{8c
8f
8g
=1
4.a-
8b-
8g
8a-
=2
4.f}
=3
{8e-
8a-
8b-
=4
4.cc
16a-
16a-
8cc
8a-
=5
4g}
8r
=6
{8g
8a-
8b-
=7
4cc
8r
8cc
8a-
8cc
=8
4b-}
8r
=9
{8b-
8a-
8g
=10
4f
8a-
8g
8f
8e
=11
4f}
8r
==
*-
!!!minrhy: 16
!!!meters: 3/4 ]  ZZ[4
!!!cut: Am Abend, eh ich schlafen geh (Band 1), S. 205
!!!reg: Lothringen
!!!trd: PINCK, Louis: Verklingende Weisen, Bd 1, Metz 1928
!!!rhy1: X_X_X_  X__.X_X_X_  X__.
!!!rhy2: X_X_X_  X__.XXX_X_  X__0_
!!!key: P0846  16  F 3/4 ]  ZZ[4
!!!mod: HEPTATONIK MOLL ?]  AMBITUS[8
!!!kad: 1241
!!!akz: 3b1_52_54_11_
!!!fot: 'a__b__c__d__
!!!for: 'a__b__av_a__
!!!fok: '^a_^a_/__\__
!! PHRAS[AUFTAKTIG]
!!!fkt: Liebe, Fenstergang
!! LOTH VKL
!! PR[28] 2K[5] 2G[23] 3K[3] 3G[5] 4A[3] 4Ü[0] 5A[3] 6K[0] 6G[0]
!! 7K[0] 7G[0] 8A[0] MEHR[0] SI[40] ABS[40] SR[28] SP[13]
!! ST[16] 2k[0] 2g[15] 3k[8] 3g[8] 4d[3] 4ü[0] 5d[0] 6k[0] 6g[0]
!! 7k[0] 7g[0] 8d[0] mehr[0] si[33] dm[+7] sr[15] sp[18]
!! 1F[5] 2F[76] 3F[20] 4F[0] LF[0] 2P[0] 3P[0] 4P[0] TRI[0] DF[3] AB[41]
!! TF[0] U3K[0] U3[0] U4[0] U4Ü[0] U5[5] U6K[0] U6[2] U7K[0] U7[2]
!! N1[32] N2K[0] N2[17] N3K[0] N3[20] N4[5] N4Ü[0] N5[17] N6K[0] N6[0]
!!!n7k: 0] N7[0] O1[0] O2K[0] O2[0] O3K[0] O3[0] HÖ[0
